X: 430
U:~=!turn!
M:C|
L:1/8
K:F
[2 (AF)cA Bcde | fcdB AFF || f| afge Tf2 (cB) | AcfA BGGf | afge Tf2 (cB) |


